X:1
T:Tit for Tat. WR1776.01
B:Wm.Randall CDs 1776
Z:vmp.Steve Mansfield 2015
M:C
L:1/8
W:Cast off & turn your Part: cast off again & turn your Part
W:lead up to the top cast off right and left at the top
W:set corners and turn lead out sides
Q:2/4=90
K:Bb
bfdB fdBF | dBFD BFDB, | C2cd e2 d2 | {d}c4 BAGF |
bfdB fdBF | dBFD BFDB, | C2e2 dcBA | B2B2 B4 :|
|: B,DFB dBAB | CEGc ec=Bc | defg fgab | GABc BAGF |
dBAB ec=Bc | defg fgab | fgec BdcA | B2B2 B4 :|

